assets/flowers/february_center_right.svg

<?xml version="1.0" encoding="UTF-8" standalone="no"?>
<svg
   viewBox="0 0 588 1053"
   width="588"
   height="1053"
   version="1.1"
   id="svg13"
   sodipodi:docname="february_center_right.svg"
   inkscape:version="1.4.2 (f4327f4, 2025-05-13)"
   xmlns:inkscape="http://www.inkscape.org/namespaces/inkscape"
   xmlns:sodipodi="http://sodipodi.sourceforge.net/DTD/sodipodi-0.dtd"
   xmlns="http://www.w3.org/2000/svg"
   xmlns:svg="http://www.w3.org/2000/svg">
  <defs
     id="defs13" />
  <sodipodi:namedview
     id="namedview13"
     pagecolor="#ffffff"
     bordercolor="#000000"
     borderopacity="0.25"
     inkscape:showpageshadow="2"
     inkscape:pageopacity="0.0"
     inkscape:pagecheckerboard="0"
     inkscape:deskcolor="#d1d1d1"
     inkscape:zoom="0.76638177"
     inkscape:cx="15.005576"
     inkscape:cy="625.66729"
     inkscape:window-width="1920"
     inkscape:window-height="1009"
     inkscape:window-x="1912"
     inkscape:window-y="-8"
     inkscape:window-maximized="1"
     inkscape:current-layer="svg13" />
  <path
     d="m 433,179 c 0.33,0.33 2,-1 2,2 0,3 -4,12.83 -2,16 2,3.17 9,3.33 14,3 5,-0.33 12.83,-3.67 16,-5 3.17,-1.33 2,0.17 3,-3 1,-3.17 2.5,-13.33 3,-16"
     fill="none"
     stroke="#000000"
     stroke-width="10.00"
     stroke-linecap="round"
     stroke-linejoin="round"
     id="path1"
     style="stroke-width:8;stroke-dasharray:none"
     sodipodi:nodetypes="csssssc" />
  <path
     d="m 31,1037 c -1.17,-7.5 -6,-24.5 -7,-45 -1,-20.5 0.586423,-64.16715 1,-78 0.428964,-14.3475 3.702848,-38.53589 5,-56 0.820969,-11.05305 2.560964,-23.96798 3.84668,-35.30664 1.610491,-14.20283 3.951955,-34.11051 6.001368,-48.61465 2.187497,-15.48139 2.858289,-23.4519 3.922656,-29.22929 2.996491,-16.26499 5.815041,-28.83712 7.61328,-36.45313 3.388041,-14.34921 7.721064,-31.93072 13.232032,-48.78027 3.121246,-9.54308 6.066159,-19.62095 10.308008,-32.15332 5.216592,-15.41222 8.893449,-27.88727 11.537304,-35.61055 4.89215,-14.29103 9.175995,-26.60659 12.616016,-35.61875 2.829996,-8 9.189876,-23.36894 11.922656,-31.2334 3.69183,-10.62446 8.00987,-23.36329 11.76934,-31.7666 2,-5 5.06066,-11.7334 7.23066,-17.2334 2.76958,-6.57122 13.76246,-26.70369 16.33622,-33.83847 0.19566,2.119 3.66747,20.49597 4.66378,29.83847 1.74296,16.34391 1.9012,27.54807 2.15332,34.23203 0.41328,10.95634 -0.31317,27.04968 -1.07598,36.68652 -1.17,14.5 -3.95816,43.35097 -5.07734,56.08145 -1.1278,12.82849 -2.85727,20.70513 -4.84668,32.07598 -1.31271,7.50304 -2.66385,14.80671 -3.92402,21.54004 -1.27605,6.81813 -2.9566,11.90477 -7.07598,24.30527 -3.01653,9.0806 -5.65022,16.65123 -9.73028,24.78023 -2.84668,5.67167 -3.99576,9.39989 -7.75242,16.51094 -2.47338,4.68191 -4.76227,8.73313 -7.37712,14.05014 -2.14167,4.35485 -4.63689,9.12654 -9.2935,15.63052 -3.427166,4.7868 -6.505887,9.27281 -14,20.10688 -7.494854,10.83515 -34.762976,37.82284 -44.609177,42.30664"
     fill="none"
     stroke="#000000"
     stroke-width="6.32"
     stroke-linecap="round"
     stroke-linejoin="round"
     id="path2"
     sodipodi:nodetypes="csssssssssssssssssssssssssssc"
     style="stroke-width:8;stroke-dasharray:none" />
  <path
     d="m 546,87 c 0.17,-2.17 1.5,-9.83 1,-13 -0.5,-3.17 -3.17,-3.83 -4,-6 -0.83,-2.17 1,-3.67 -1,-7 -2,-3.33 -5,-7.67 -11,-13 -6,-5.33 -20.33,-15.83 -25,-19 -4.67,-3.17 -0.5,1.5 -3,0 -2.5,-1.5 -2,-7.33 -12,-9 -10,-1.67 -36.17,-2.83 -48,-1 -11.83,1.83 -16.67,7.67 -23,12 -6.33,4.33 -9.83,10 -15,14 -5.17,4 -12.33,8.83 -16,10 -3.67,1.17 -1.67,-3 -6,-3 -4.33,0 -13.67,1.17 -20,3 -6.33,1.83 -12.5,5 -18,8 -5.5,3 -9.5,5.17 -15,10 -5.5,4.83 -14.83,14 -18,19 -3.17,5 0.83,7 -1,11 -1.83,4 -7.67,7.67 -10,13 -2.33,5.33 -3.67,12.83 -4,19 -0.33,6.17 0.67,12.67 2,18 1.33,5.33 5,10.5 6,14 1,3.5 -0.83,4.33 0,7 0.83,2.67 2.83,6.5 5,9 2.17,2.5 5.67,6.17 8,6 2.33,-0.17 4,-2.83 6,-7 2,-4.17 0.17,-10 6,-18 5.83,-8 22.83,-24.83 29,-30 6.17,-5.17 5.17,0.17 8,-1 2.83,-1.17 4.83,-4.67 9,-6 4.17,-1.33 11,-1.83 16,-2 5,-0.17 8.83,-1.5 14,1 5.17,2.5 13.5,11.5 17,14 3.5,2.5 1.67,-0.83 4,1 2.33,1.83 6.83,8 10,10 3.17,2 7.5,-0.5 9,2 1.5,2.5 -2.17,10.33 0,13 2.17,2.67 9.17,1.33 13,3 3.83,1.67 1.17,6.33 10,7 8.83,0.67 32.33,-3.67 43,-3 10.67,0.67 13.67,9.17 21,7 7.33,-2.17 18.5,-14.5 23,-20 4.5,-5.5 2.33,-9.17 4,-13 1.67,-3.83 5.17,-6.5 6,-10 0.83,-3.5 0.33,-5.33 -1,-11 -1.33,-5.67 -4.17,-17.5 -7,-23 -2.83,-5.5 -8,-7.5 -10,-10 -2,-2.5 -1.17,-4 -2,-5 -0.83,-1 3.17,-0.33 -3,-1 -6.17,-0.67 -27.67,-2 -34,-3 -6.33,-1 -1,-2 -4,-3 -3,-1 -9.83,-2.67 -14,-3 -4.17,-0.33 -7.83,-0.17 -11,1 -3.17,1.17 -5.33,4.67 -8,6 -2.67,1.33 -5.33,0 -8,2 -2.67,2 -5.83,5.17 -8,10 -2.17,4.83 -3.67,10 -5,19 -1.33,9 -2.17,28.83 -3,35 -0.83,6.17 -1.67,1.67 -2,2"
     fill="none"
     stroke="#000000"
     stroke-width="8.00"
     stroke-linecap="round"
     stroke-linejoin="round"
     id="path3"
     style="stroke-width:8;stroke-dasharray:none"
     sodipodi:nodetypes="csssssssssssssssssssssssssssssssssssssssssssssssssssssssssc" />
  <path
     d="m 389,55 c -0.5,2.5 -1.67,11.5 -3,15 -1.33,3.5 -3.83,3.67 -5,6 -1.17,2.33 -1.67,3.5 -2,8 -0.33,4.5 0.33,15 0,19 -0.33,4 -1.67,1 -2,5 -0.33,4 -0.33,15.83 0,19 0.33,3.17 1.67,0 2,0"
     fill="none"
     stroke="#000000"
     stroke-width="8.49"
     stroke-linecap="round"
     stroke-linejoin="round"
     id="path4"
     style="stroke-width:8;stroke-dasharray:none"
     sodipodi:nodetypes="cssssssc" />
  <path
     d="m 208,101 c -0.5,-2.67 0.67,-10.33 -3,-16 -3.67,-5.67 -10.5,-15.17 -19,-18 -8.5,-2.83 -23.17,-3.5 -32,1 -8.83,4.5 -17.67,16 -21,26 -3.33,10 0.17,26.33 1,34 0.83,7.67 5.17,8.33 4,12 -1.17,3.67 -7.5,8.5 -11,10 -3.5,1.5 -6,-2 -10,-1 -4,1 -9.67,3.17 -14,7 -4.33,3.83 -9.33,13.17 -12,16 -2.67,2.83 -2.33,1.33 -4,1 -1.67,-0.33 -3.67,-1.33 -6,-3 -2.33,-1.67 -5,-1.33 -8,-7 -3,-5.67 -8.33,-18.33 -10,-27 -1.67,-8.67 -0.5,-19.83 0,-25 0.5,-5.17 0.33,-3 3,-6 2.67,-3 8.83,-9 13,-12 4.17,-3 6.67,-5 12,-6 5.33,-1 14.67,-1 20,0 5.33,1 8.5,5 12,6 3.5,1 7.17,-0.33 9,0 1.83,0.33 1.67,1.67 2,2"
     fill="none"
     stroke="#000000"
     stroke-width="7.21"
     stroke-linecap="round"
     stroke-linejoin="round"
     id="path5"
     style="stroke-width:8;stroke-dasharray:none"
     sodipodi:nodetypes="csssssssssssssssssssssc" />
  <path
     d="m 158,147 c 1,-1.17 4.5,-3.5 6,-7 1.5,-3.5 2,-11.17 3,-14 1,-2.83 1,-2.33 3,-3 2,-0.67 5.67,2 9,-1 3.33,-3 7,-14 11,-17 4,-3 10,-0.33 13,-1 3,-0.67 1,-2.83 5,-3 4,-0.17 13.5,0 19,2 5.5,2 10.5,6.5 14,10 3.5,3.5 5.83,6.67 7,11 1.17,4.33 0.67,10.67 0,15 -0.67,4.33 -2.17,7.5 -4,11 -1.83,3.5 -4.5,7.33 -7,10 -2.5,2.67 -6.67,5 -8,6"
     fill="none"
     stroke="#000000"
     stroke-width="8.25"
     stroke-linecap="round"
     stroke-linejoin="round"
     id="path6"
     style="stroke-width:8;stroke-dasharray:none"
     sodipodi:nodetypes="csssssssssssssc" />
  <path
     d="m 138,140 c 0.67,0.5 1.83,2.5 4,3 2.17,0.5 6.33,-0.67 9,0 2.67,0.67 5.67,1 7,4 1.33,3 0.83,11.67 1,14"
     fill="none"
     stroke="#000000"
     stroke-width="18.11"
     stroke-linecap="round"
     stroke-linejoin="round"
     id="path7"
     style="stroke-width:8;stroke-dasharray:none"
     sodipodi:nodetypes="csssc" />
  <path
     d="m 127,150 c 0.33,1.17 0.83,5 2,7 1.17,2 2,3.5 5,5 3,1.5 9.17,3.17 13,4 3.83,0.83 8,1.67 10,1 2,-0.67 -0.83,-4.5 2,-5 2.83,-0.5 9.83,-0.33 15,2 5.17,2.33 10.17,10.33 16,12 5.83,1.67 12.5,-0.33 19,-2 6.5,-1.67 15.5,-8.67 20,-8 4.5,0.67 5.17,7.33 7,12 1.83,4.67 3.33,9.33 4,16 0.67,6.67 0.67,19.17 0,24 -0.67,4.83 -3.5,3.33 -4,5 -0.5,1.67 1.67,2.67 1,5 -0.67,2.33 -1,5.67 -5,9 -4,3.33 -12.67,8.83 -19,11 -6.33,2.17 -12.67,2.33 -19,2 -6.33,-0.33 -13.83,-1.5 -19,-4 -5.17,-2.5 -10,-9.17 -12,-11"
     fill="none"
     stroke="#000000"
     stroke-width="8.00"
     stroke-linecap="round"
     stroke-linejoin="round"
     id="path8"
     style="stroke-width:8;stroke-dasharray:none"
     sodipodi:nodetypes="cssssssssssssssssssc" />
  <path
     d="m 156,167 c 1,1 4.67,2.83 6,6 1.33,3.17 -0.67,8.67 2,13 2.67,4.33 11.67,9.67 14,13 2.33,3.33 0.5,4.5 0,7 -0.5,2.5 -1.17,5 -3,8 -1.83,3 -6,6.5 -8,10 -2,3.5 -1.67,9.17 -4,11 -2.33,1.83 -6.67,-0.83 -10,0 -3.33,0.83 -7.33,3 -10,5 -2.67,2 -5,6.17 -6,7 -1,0.83 1,-1.5 0,-2 -1,-0.5 -2,-0.83 -6,-1 -4,-0.17 -12.83,1.17 -18,0 -5.17,-1.17 -8.83,-3.67 -13,-7 -4.17,-3.33 -9.33,-8.33 -12,-13 -2.67,-4.67 -3.5,-9.83 -4,-15 -0.5,-5.17 0.17,-11.17 1,-16 0.83,-4.83 3.5,-9.67 4,-13 0.5,-3.33 -0.83,-5.83 -1,-7"
     fill="none"
     stroke="#000000"
     stroke-width="8.00"
     stroke-linecap="round"
     stroke-linejoin="round"
     id="path9"
     style="stroke-width:8;stroke-dasharray:none"
     sodipodi:nodetypes="cssssssssssssssssssc" />
  <path
     d="m 534,179 c -0.17,0.67 -3.67,-0.33 -1,4 2.67,4.33 14.17,15.33 17,22 2.83,6.67 0.5,13.17 0,18 -0.5,4.83 -0.83,6.83 -3,11 -2.17,4.17 -4.33,8.83 -10,14 -5.67,5.17 -18,13.17 -24,17 -6,3.83 -8.33,4.67 -12,6 -3.67,1.33 -6.5,0.17 -10,2 -3.5,1.83 -7.83,7.33 -11,9 -3.17,1.67 -4,-1 -8,1 -4,2 -11.67,9 -16,11 -4.33,2 -6.67,1.67 -10,1 -3.33,-0.67 -5,-3.83 -10,-5 -5,-1.17 -15.5,-1.17 -20,-2 -4.5,-0.83 -2.83,0.33 -7,-3 -4.17,-3.33 -14,-12.5 -18,-17 -4,-4.5 -5,-8.33 -6,-10"
     fill="none"
     stroke="#000000"
     stroke-width="8.00"
     stroke-linecap="round"
     stroke-linejoin="round"
     id="path10"
     style="stroke-width:8;stroke-dasharray:none"
     sodipodi:nodetypes="cssssssssssssssssc" />
  <path
     d="m 319,190 c 0.17,2.33 1.17,11.67 1,14 -0.17,2.33 -1.67,0 -2,0"
     fill="none"
     stroke="#000000"
     stroke-width="14.90"
     stroke-linecap="round"
     stroke-linejoin="round"
     id="path11"
     style="stroke-width:8;stroke-dasharray:none"
     sodipodi:nodetypes="csc" />
  <path
     d="m 433,197 c -2.33,1.67 -7,3.17 -14,10 -7,6.83 -22.33,22.5 -28,31 -5.67,8.5 -1.33,16.83 -6,20 -4.67,3.17 -16.17,0 -22,-1 -5.83,-1 -7.67,-0.67 -13,-5 -5.33,-4.33 -15.67,-16.33 -19,-21 -3.33,-4.67 -0.33,-5.5 -1,-7 -0.67,-1.5 -1.33,1.33 -3,-2 -1.67,-3.33 -3.5,-15.83 -7,-18 -3.5,-2.17 -5.5,-1.17 -14,5 -8.5,6.17 -22,15.5 -37,32 -15,16.5 -42.17,52.67 -53,67 -10.83,14.33 -9.33621,14.68918 -12,19 -9.18443,14.8632 -13.84428,23.38929 -17.32776,29.62735 -3.16047,5.65964 -6.79949,13.06403 -9.62949,18.39403 -2.83,5.33 -5.74763,10.60366 -9.265,18.58305 -2.6074,5.91505 -6.25439,12.95624 -8.62306,19.24089 -1.92584,5.10969 -13.56182,34.48995 -15.56182,36.48995"
     fill="none"
     stroke="#000000"
     stroke-width="8.00"
     stroke-linecap="round"
     stroke-linejoin="round"
     id="path12"
     style="stroke-width:8;stroke-dasharray:none"
     sodipodi:nodetypes="csssssssssssssssssc" />
  <path
     d="m 137,247 c -4.05081,12.44731 -5.72395,16.99131 -9.30483,36 -2.18375,11.59216 -1.72664,36.41307 -1.67379,46.58829 0.11029,21.23773 3.08387,37.61945 7.97862,58.41171 3.53201,15.00351 10.68993,40.96912 13.53593,61.90761"
     fill="none"
     stroke="#000000"
     stroke-width="8"
     stroke-linecap="round"
     stroke-linejoin="round"
     id="path13"
     sodipodi:nodetypes="csssc"
     style="stroke-width:8;stroke-dasharray:none" />
</svg>

<?xml version="1.0" encoding="UTF-8"?>
<svg xmlns="http://www.w3.org/2000/svg" viewBox="0 0 588 1053" width="588" height="1053">
  <path d="M433.00,179.00 C433.33,179.33 435.00,178.00 435.00,181.00 C435.00,184.00 431.00,193.83 433.00,197.00 C435.00,200.17 442.00,200.33 447.00,200.00 C452.00,199.67 459.83,196.33 463.00,195.00 C466.17,193.67 465.00,195.17 466.00,192.00 C467.00,188.83 468.50,178.67 469.00,176.00" fill="none" stroke="black" stroke-width="10.00" stroke-linecap="round" stroke-linejoin="round"/>
  <path d="M31.00,1037.00 C29.83,1029.50 25.00,1012.50 24.00,992.00 C23.00,971.50 24.50,927.83 25.00,914.00 C25.50,900.17 26.17,918.33 27.00,909.00 C27.83,899.67 29.00,868.00 30.00,858.00 C31.00,848.00 32.17,854.50 33.00,849.00 C33.83,843.50 33.67,831.00 35.00,825.00 C36.33,819.00 40.50,816.83 41.00,813.00 C41.50,809.17 37.50,807.83 38.00,802.00 C38.50,796.17 42.50,786.33 44.00,778.00 C45.50,769.67 46.00,757.00 47.00,752.00 C48.00,747.00 49.50,751.00 50.00,748.00 C50.50,745.00 47.33,748.50 50.00,734.00 C52.67,719.50 61.50,676.67 66.00,661.00 C70.50,645.33 75.17,645.17 77.00,640.00 C78.83,634.83 76.17,633.33 77.00,630.00 C77.83,626.67 81.00,623.67 82.00,620.00 C83.00,616.33 82.33,610.50 83.00,608.00 C83.67,605.50 84.17,609.67 86.00,605.00 C87.83,600.33 92.67,585.33 94.00,580.00 C95.33,574.67 93.00,576.00 94.00,573.00 C95.00,570.00 97.17,570.00 100.00,562.00 C102.83,554.00 108.17,532.83 111.00,525.00 C113.83,517.17 115.83,518.17 117.00,515.00 C118.17,511.83 117.00,508.67 118.00,506.00 C119.00,503.33 121.00,504.00 123.00,499.00 C125.00,494.00 127.83,481.50 130.00,476.00 C132.17,470.50 133.50,468.83 136.00,466.00 C138.50,463.17 142.83,459.50 145.00,459.00 C147.17,458.50 148.00,460.83 149.00,463.00 C150.00,465.17 150.50,464.33 151.00,472.00 C151.50,479.67 151.50,502.33 152.00,509.00 C152.50,515.67 153.83,508.00 154.00,512.00 C154.17,516.00 154.17,518.50 153.00,533.00 C151.83,547.50 148.67,586.33 147.00,599.00 C145.33,611.67 144.00,604.00 143.00,609.00 C142.00,614.00 142.33,621.50 141.00,629.00 C139.67,636.50 136.67,649.00 135.00,654.00 C133.33,659.00 131.83,655.83 131.00,659.00 C130.17,662.17 131.33,668.83 130.00,673.00 C128.67,677.17 124.17,681.00 123.00,684.00 C121.83,687.00 124.67,687.17 123.00,691.00 C121.33,694.83 114.83,702.33 113.00,707.00 C111.17,711.67 114.17,714.17 112.00,719.00 C109.83,723.83 102.33,733.17 100.00,736.00 C97.67,738.83 98.50,734.83 98.00,736.00 C97.50,737.17 99.50,737.67 97.00,743.00 C94.50,748.33 90.50,757.17 83.00,768.00 C75.50,778.83 58.83,800.50 52.00,808.00 C45.17,815.50 43.67,812.17 42.00,813.00" fill="none" stroke="black" stroke-width="6.32" stroke-linecap="round" stroke-linejoin="round"/>
  <path d="M546.00,87.00 C546.17,84.83 547.50,77.17 547.00,74.00 C546.50,70.83 543.83,70.17 543.00,68.00 C542.17,65.83 544.00,64.33 542.00,61.00 C540.00,57.67 537.00,53.33 531.00,48.00 C525.00,42.67 510.67,32.17 506.00,29.00 C501.33,25.83 505.50,30.50 503.00,29.00 C500.50,27.50 501.00,21.67 491.00,20.00 C481.00,18.33 454.83,17.17 443.00,19.00 C431.17,20.83 426.33,26.67 420.00,31.00 C413.67,35.33 410.17,41.00 405.00,45.00 C399.83,49.00 392.67,53.83 389.00,55.00 C385.33,56.17 387.33,52.00 383.00,52.00 C378.67,52.00 369.33,53.17 363.00,55.00 C356.67,56.83 350.50,60.00 345.00,63.00 C339.50,66.00 335.50,68.17 330.00,73.00 C324.50,77.83 315.17,87.00 312.00,92.00 C308.83,97.00 312.83,99.00 311.00,103.00 C309.17,107.00 303.33,110.67 301.00,116.00 C298.67,121.33 297.33,128.83 297.00,135.00 C296.67,141.17 297.67,147.67 299.00,153.00 C300.33,158.33 304.00,163.50 305.00,167.00 C306.00,170.50 304.17,171.33 305.00,174.00 C305.83,176.67 307.83,180.50 310.00,183.00 C312.17,185.50 315.67,189.17 318.00,189.00 C320.33,188.83 322.00,186.17 324.00,182.00 C326.00,177.83 324.17,172.00 330.00,164.00 C335.83,156.00 352.83,139.17 359.00,134.00 C365.17,128.83 364.17,134.17 367.00,133.00 C369.83,131.83 371.83,128.33 376.00,127.00 C380.17,125.67 387.00,125.17 392.00,125.00 C397.00,124.83 400.83,123.50 406.00,126.00 C411.17,128.50 419.50,137.50 423.00,140.00 C426.50,142.50 424.67,139.17 427.00,141.00 C429.33,142.83 433.83,149.00 437.00,151.00 C440.17,153.00 444.50,150.50 446.00,153.00 C447.50,155.50 443.83,163.33 446.00,166.00 C448.17,168.67 455.17,167.33 459.00,169.00 C462.83,170.67 460.17,175.33 469.00,176.00 C477.83,176.67 501.33,172.33 512.00,173.00 C522.67,173.67 525.67,182.17 533.00,180.00 C540.33,177.83 551.50,165.50 556.00,160.00 C560.50,154.50 558.33,150.83 560.00,147.00 C561.67,143.17 565.17,140.50 566.00,137.00 C566.83,133.50 566.33,131.67 565.00,126.00 C563.67,120.33 560.83,108.50 558.00,103.00 C555.17,97.50 550.00,95.50 548.00,93.00 C546.00,90.50 546.83,89.00 546.00,88.00 C545.17,87.00 549.17,87.67 543.00,87.00 C536.83,86.33 515.33,85.00 509.00,84.00 C502.67,83.00 508.00,82.00 505.00,81.00 C502.00,80.00 495.17,78.33 491.00,78.00 C486.83,77.67 483.17,77.83 480.00,79.00 C476.83,80.17 474.67,83.67 472.00,85.00 C469.33,86.33 466.67,85.00 464.00,87.00 C461.33,89.00 458.17,92.17 456.00,97.00 C453.83,101.83 452.33,107.00 451.00,116.00 C449.67,125.00 448.83,144.83 448.00,151.00 C447.17,157.17 446.33,152.67 446.00,153.00" fill="none" stroke="black" stroke-width="8.00" stroke-linecap="round" stroke-linejoin="round"/>
  <path d="M389.00,55.00 C388.50,57.50 387.33,66.50 386.00,70.00 C384.67,73.50 382.17,73.67 381.00,76.00 C379.83,78.33 379.33,79.50 379.00,84.00 C378.67,88.50 379.33,99.00 379.00,103.00 C378.67,107.00 377.33,104.00 377.00,108.00 C376.67,112.00 376.67,123.83 377.00,127.00 C377.33,130.17 378.67,127.00 379.00,127.00" fill="none" stroke="black" stroke-width="8.49" stroke-linecap="round" stroke-linejoin="round"/>
  <path d="M208.00,101.00 C207.50,98.33 208.67,90.67 205.00,85.00 C201.33,79.33 194.50,69.83 186.00,67.00 C177.50,64.17 162.83,63.50 154.00,68.00 C145.17,72.50 136.33,84.00 133.00,94.00 C129.67,104.00 133.17,120.33 134.00,128.00 C134.83,135.67 139.17,136.33 138.00,140.00 C136.83,143.67 130.50,148.50 127.00,150.00 C123.50,151.50 121.00,148.00 117.00,149.00 C113.00,150.00 107.33,152.17 103.00,156.00 C98.67,159.83 93.67,169.17 91.00,172.00 C88.33,174.83 88.67,173.33 87.00,173.00 C85.33,172.67 83.33,171.67 81.00,170.00 C78.67,168.33 76.00,168.67 73.00,163.00 C70.00,157.33 64.67,144.67 63.00,136.00 C61.33,127.33 62.50,116.17 63.00,111.00 C63.50,105.83 63.33,108.00 66.00,105.00 C68.67,102.00 74.83,96.00 79.00,93.00 C83.17,90.00 85.67,88.00 91.00,87.00 C96.33,86.00 105.67,86.00 111.00,87.00 C116.33,88.00 119.50,92.00 123.00,93.00 C126.50,94.00 130.17,92.67 132.00,93.00 C133.83,93.33 133.67,94.67 134.00,95.00" fill="none" stroke="black" stroke-width="7.21" stroke-linecap="round" stroke-linejoin="round"/>
  <path d="M158.00,147.00 C159.00,145.83 162.50,143.50 164.00,140.00 C165.50,136.50 166.00,128.83 167.00,126.00 C168.00,123.17 168.00,123.67 170.00,123.00 C172.00,122.33 175.67,125.00 179.00,122.00 C182.33,119.00 186.00,108.00 190.00,105.00 C194.00,102.00 200.00,104.67 203.00,104.00 C206.00,103.33 204.00,101.17 208.00,101.00 C212.00,100.83 221.50,101.00 227.00,103.00 C232.50,105.00 237.50,109.50 241.00,113.00 C244.50,116.50 246.83,119.67 248.00,124.00 C249.17,128.33 248.67,134.67 248.00,139.00 C247.33,143.33 245.83,146.50 244.00,150.00 C242.17,153.50 239.50,157.33 237.00,160.00 C234.50,162.67 230.33,165.00 229.00,166.00" fill="none" stroke="black" stroke-width="8.25" stroke-linecap="round" stroke-linejoin="round"/>
  <path d="M138.00,140.00 C138.67,140.50 139.83,142.50 142.00,143.00 C144.17,143.50 148.33,142.33 151.00,143.00 C153.67,143.67 156.67,144.00 158.00,147.00 C159.33,150.00 158.83,158.67 159.00,161.00" fill="none" stroke="black" stroke-width="18.11" stroke-linecap="round" stroke-linejoin="round"/>
  <path d="M127.00,150.00 C127.33,151.17 127.83,155.00 129.00,157.00 C130.17,159.00 131.00,160.50 134.00,162.00 C137.00,163.50 143.17,165.17 147.00,166.00 C150.83,166.83 155.00,167.67 157.00,167.00 C159.00,166.33 156.17,162.50 159.00,162.00 C161.83,161.50 168.83,161.67 174.00,164.00 C179.17,166.33 184.17,174.33 190.00,176.00 C195.83,177.67 202.50,175.67 209.00,174.00 C215.50,172.33 224.50,165.33 229.00,166.00 C233.50,166.67 234.17,173.33 236.00,178.00 C237.83,182.67 239.33,187.33 240.00,194.00 C240.67,200.67 240.67,213.17 240.00,218.00 C239.33,222.83 236.50,221.33 236.00,223.00 C235.50,224.67 237.67,225.67 237.00,228.00 C236.33,230.33 236.00,233.67 232.00,237.00 C228.00,240.33 219.33,245.83 213.00,248.00 C206.67,250.17 200.33,250.33 194.00,250.00 C187.67,249.67 180.17,248.50 175.00,246.00 C169.83,243.50 165.00,236.83 163.00,235.00" fill="none" stroke="black" stroke-width="8.00" stroke-linecap="round" stroke-linejoin="round"/>
  <path d="M156.00,167.00 C157.00,168.00 160.67,169.83 162.00,173.00 C163.33,176.17 161.33,181.67 164.00,186.00 C166.67,190.33 175.67,195.67 178.00,199.00 C180.33,202.33 178.50,203.50 178.00,206.00 C177.50,208.50 176.83,211.00 175.00,214.00 C173.17,217.00 169.00,220.50 167.00,224.00 C165.00,227.50 165.33,233.17 163.00,235.00 C160.67,236.83 156.33,234.17 153.00,235.00 C149.67,235.83 145.67,238.00 143.00,240.00 C140.33,242.00 138.00,246.17 137.00,247.00 C136.00,247.83 138.00,245.50 137.00,245.00 C136.00,244.50 135.00,244.17 131.00,244.00 C127.00,243.83 118.17,245.17 113.00,244.00 C107.83,242.83 104.17,240.33 100.00,237.00 C95.83,233.67 90.67,228.67 88.00,224.00 C85.33,219.33 84.50,214.17 84.00,209.00 C83.50,203.83 84.17,197.83 85.00,193.00 C85.83,188.17 88.50,183.33 89.00,180.00 C89.50,176.67 88.17,174.17 88.00,173.00" fill="none" stroke="black" stroke-width="8.00" stroke-linecap="round" stroke-linejoin="round"/>
  <path d="M534.00,179.00 C533.83,179.67 530.33,178.67 533.00,183.00 C535.67,187.33 547.17,198.33 550.00,205.00 C552.83,211.67 550.50,218.17 550.00,223.00 C549.50,227.83 549.17,229.83 547.00,234.00 C544.83,238.17 542.67,242.83 537.00,248.00 C531.33,253.17 519.00,261.17 513.00,265.00 C507.00,268.83 504.67,269.67 501.00,271.00 C497.33,272.33 494.50,271.17 491.00,273.00 C487.50,274.83 483.17,280.33 480.00,282.00 C476.83,283.67 476.00,281.00 472.00,283.00 C468.00,285.00 460.33,292.00 456.00,294.00 C451.67,296.00 449.33,295.67 446.00,295.00 C442.67,294.33 441.00,291.17 436.00,290.00 C431.00,288.83 420.50,288.83 416.00,288.00 C411.50,287.17 413.17,288.33 409.00,285.00 C404.83,281.67 395.00,272.50 391.00,268.00 C387.00,263.50 386.00,259.67 385.00,258.00" fill="none" stroke="black" stroke-width="8.00" stroke-linecap="round" stroke-linejoin="round"/>
  <path d="M319.00,190.00 C319.17,192.33 320.17,201.67 320.00,204.00 C319.83,206.33 318.33,204.00 318.00,204.00" fill="none" stroke="black" stroke-width="14.90" stroke-linecap="round" stroke-linejoin="round"/>
  <path d="M433.00,197.00 C430.67,198.67 426.00,200.17 419.00,207.00 C412.00,213.83 396.67,229.50 391.00,238.00 C385.33,246.50 389.67,254.83 385.00,258.00 C380.33,261.17 368.83,258.00 363.00,257.00 C357.17,256.00 355.33,256.33 350.00,252.00 C344.67,247.67 334.33,235.67 331.00,231.00 C327.67,226.33 330.67,225.50 330.00,224.00 C329.33,222.50 328.67,225.33 327.00,222.00 C325.33,218.67 323.50,206.17 320.00,204.00 C316.50,201.83 314.50,202.83 306.00,209.00 C297.50,215.17 284.00,224.50 269.00,241.00 C254.00,257.50 226.83,293.67 216.00,308.00 C205.17,322.33 206.33,322.50 204.00,327.00 C201.67,331.50 205.50,329.00 202.00,335.00 C198.50,341.00 186.83,356.17 183.00,363.00 C179.17,369.83 181.83,370.67 179.00,376.00 C176.17,381.33 169.00,389.17 166.00,395.00 C163.00,400.83 163.83,406.33 161.00,411.00 C158.17,415.67 151.00,421.00 149.00,423.00" fill="none" stroke="black" stroke-width="8.00" stroke-linecap="round" stroke-linejoin="round"/>
  <path d="M137.00,247.00 C136.83,249.17 136.83,256.67 136.00,260.00 C135.17,263.33 132.83,263.50 132.00,267.00 C131.17,270.50 131.50,278.33 131.00,281.00 C130.50,283.67 129.67,275.50 129.00,283.00 C128.33,290.50 126.67,315.83 127.00,326.00 C127.33,336.17 129.83,333.67 131.00,344.00 C132.17,354.33 132.17,376.00 134.00,388.00 C135.83,400.00 139.50,410.17 142.00,416.00 C144.50,421.83 148.17,421.33 149.00,423.00 C149.83,424.67 147.17,424.33 147.00,426.00 C146.83,427.67 148.50,427.33 148.00,433.00 C147.50,438.67 144.33,455.50 144.00,460.00 C143.67,464.50 145.67,460.00 146.00,460.00" fill="none" stroke="black" stroke-width="8.00" stroke-linecap="round" stroke-linejoin="round"/>
</svg>
